!!! OTL: Berkowitz515
!!! Chapter: 1
!!! Section: IV
!!! Page: 129
!!! Mode: 
!!! Encoder: DJB
**kern
*staff1
*I"Piano
=1-
*clefG2
*k[b-]
*F:
*M4/8
8r
8r
8r
8c/
=2
8f/L
8a/
8f#/
8g/J
=3
8b-/L
8g#/J
4a/
=4
16dd\
16r
16r
16cc\LL
16b-\JJ
16r
16r
16a/
=5
16g/LL
16f/
16e/
16f/J
8g/J
16r
16c/
=6
8f/L
8a/
8f#/
8g/J
=7
8b-/L
8g#/
8a/
8bn/J
=8
8cc/L
16g/L
16a/
16g/
16f/
16e/
16d/JJ
=9
!!linebreak:original
4c/
8r
8cc\
=10
8dd-\L
8b-\
8g\
8dd-\J
=11
8cc/L
8a-/
8f/
8cc/J
=12
8b-/L
8g/
8.e/
16g/Jk
=13
[4c/
16c/LL]
16c/
16d/
16e/JJ
=14
8f/L
8a-/
8g/
8b-/J
=15
8a-\L
8cc\
8b-\
8dd-\J
=16
8cc/L
[8B-/
16B-/L]
16c/
16d/
16e/JJ
=17
4f/
4r
==
*-
